X: 1
T:THE SKYE BOAT SONG
M:6/8
L:1/8
Q:80
C:Traditional
S:Slow March
K:HP
|: {g}A3/2B/2{G}A{Gdc}d{g}c3/2d|
{g}e3/2f{g}e{ag}a3|
{fg}f3/2ef{g}B2{GdGe}B|  !
{g}A3{GAG}A3:| |:
{gfg}f3/2df{g}f3|
{g}e3/2Be{gef}e3|  !
{Gdc}dB3/2d/2{gde}d2{c}d|
{g}B3{GdGe}B3:|
